public/images/k8/api.svg

<?xml version="1.0" encoding="UTF-8" standalone="no"?>
<!-- Created with Inkscape (http://www.inkscape.org/) -->

<svg
   xmlns:dc="http://purl.org/dc/elements/1.1/"
   xmlns:cc="http://creativecommons.org/ns#"
   xmlns:rdf="http://www.w3.org/1999/02/22-rdf-syntax-ns#"
   xmlns:svg="http://www.w3.org/2000/svg"
   xmlns="http://www.w3.org/2000/svg"
   xmlns:sodipodi="http://sodipodi.sourceforge.net/DTD/sodipodi-0.dtd"
   xmlns:inkscape="http://www.inkscape.org/namespaces/inkscape"
   width="17.26683mm"
   height="16.833418mm"
   viewBox="0 0 17.26683 16.833418"
   version="1.1"
   id="svg11531"
   inkscape:version="0.92.2 2405546, 2018-03-11"
   sodipodi:docname="api.svg">
  <defs
     id="defs11525" />
  <sodipodi:namedview
     id="base"
     pagecolor="#ffffff"
     bordercolor="#666666"
     borderopacity="1.0"
     inkscape:pageopacity="0.0"
     inkscape:pageshadow="2"
     inkscape:zoom="2.8"
     inkscape:cx="-6.6829719"
     inkscape:cy="-49.530271"
     inkscape:document-units="mm"
     inkscape:current-layer="layer1"
     showgrid="false"
     inkscape:window-width="2560"
     inkscape:window-height="1556"
     inkscape:window-x="0"
     inkscape:window-y="0"
     inkscape:window-maximized="1"
     fit-margin-top="0"
     fit-margin-left="0"
     fit-margin-right="0"
     fit-margin-bottom="0" />
  <metadata
     id="metadata11528">
    <rdf:RDF>
      <cc:Work
         rdf:about="">
        <dc:format>image/svg+xml</dc:format>
        <dc:type
           rdf:resource="http://purl.org/dc/dcmitype/StillImage" />
        <dc:title></dc:title>
      </cc:Work>
    </rdf:RDF>
  </metadata>
  <g
     inkscape:label="Calque 1"
     inkscape:groupmode="layer"
     id="layer1"
     transform="translate(-1.09947,-1.132398)">
    <path
       style="fill:#326ce5;fill-opacity:1;fill-rule:evenodd;stroke:none;stroke-width:0.26458332;stroke-linecap:square;stroke-miterlimit:10"
       inkscape:connector-curvature="0"
       d="M 1.09947,11.95802 2.80944,4.466455 9.73288,1.132398 16.65631,4.466455 18.3663,11.95802 13.57507,17.965816 H 5.89068 Z"
       id="path2062" />
    <text
       id="text2066"
       y="16.811775"
       x="9.7025127"
       style="font-style:normal;font-weight:normal;font-size:10.58333302px;line-height:6.61458349px;font-family:Sans;letter-spacing:0px;word-spacing:0px;fill:#eeeeee;fill-opacity:1;stroke:none;stroke-width:0.26458332px;stroke-linecap:butt;stroke-linejoin:miter;stroke-opacity:1"
       xml:space="preserve"><tspan
         style="font-style:normal;font-variant:normal;font-weight:normal;font-stretch:normal;font-size:2.82222223px;font-family:Arial;-inkscape-font-specification:'Arial, Normal';font-variant-ligatures:normal;font-variant-caps:normal;font-variant-numeric:normal;font-feature-settings:normal;text-align:center;writing-mode:lr-tb;text-anchor:middle;fill:#eeeeee;fill-opacity:1;stroke-width:0.26458332px"
         y="16.811775"
         x="9.7025127"
         id="tspan2064"
         sodipodi:role="line">api</tspan></text>
    <path
       id="path2068"
       d="M 9.7147865,4.6351469 C 9.5764623,4.6307548 5.7194724,6.5269256 5.6690428,6.6241706 5.5478901,6.8578532 4.6702407,10.90565 4.721808,10.992896 c 0.030004,0.05065 0.6621992,0.852305 1.4045671,1.780771 l 1.3497983,1.687753 2.2215739,0.0011 2.2215737,0.0011 1.412822,-1.765785 1.413881,-1.765265 -0.494559,-2.1688612 C 13.979261,7.5708868 13.735818,6.575347 13.710947,6.5513572 13.641441,6.4844785 9.7897694,4.6376181 9.7147865,4.6351971 Z m 0.2361671,1.9828245 c 0.1866374,0.00799 0.2057924,0.2915708 0.6051284,0.3214264 0.5216,0.038997 0.465508,-0.4466511 0.864553,-0.1085215 0.399044,0.3381243 -0.0889,0.3626406 0.03514,0.870749 0.12409,0.5081032 0.568801,0.305099 0.370523,0.7890986 -0.198279,0.4840023 -0.372613,0.027281 -0.81751,0.3023077 C 10.563887,9.0680554 10.89422,9.4283782 10.372646,9.3893786 9.850994,9.350379 10.232179,9.0433142 9.8331346,8.705182 9.43409,8.3670498 9.1928959,8.7926426 9.0688327,8.2845342 8.9447432,7.7764257 9.3547679,8.0435173 9.5530467,7.559515 9.7517488,7.0754677 9.2719534,6.9782624 9.7168767,6.703236 9.7725187,6.668896 9.8187677,6.646356 9.8589844,6.632957 9.8940684,6.621289 9.9243104,6.616817 9.9509534,6.617982 Z M 10.472447,7.1900296 C 10.396671,7.1895005 10.321238,7.2002426 10.248689,7.222068 9.8482952,7.3428001 9.6217325,7.7653899 9.7427794,8.1656807 9.8637204,8.565601 10.28589,8.7918304 10.685887,8.6710745 11.085725,8.5503293 11.312155,8.1284644 11.191796,7.7284964 11.096044,7.4106763 10.804367,7.1923421 10.472447,7.1900296 Z M 7.4797982,8.4917585 c 0.039687,7.937e-4 0.088318,0.009 0.1482989,0.027387 0.4799277,0.1471374 -0.00767,0.3995023 0.334354,0.7668789 0.3420533,0.3673766 0.6285177,-0.1010867 0.741045,0.3880908 0.1125273,0.4891778 -0.3499909,0.192921 -0.4971256,0.6728278 -0.1471613,0.479904 0.4014787,0.494083 0.034105,0.836123 C 7.8731013,11.525106 7.89866,10.977006 7.4095248,11.089533 6.9203367,11.20206 7.1824859,11.684187 6.7025846,11.537049 6.2226569,11.389912 6.7102576,11.137549 6.3682307,10.770173 6.0261774,10.402794 5.739713,10.870744 5.6271857,10.381566 5.5146584,9.8923859 5.9771765,10.188642 6.1243113,9.7087386 6.2714726,9.2288321 5.7223299,9.215169 6.0897038,8.8731289 6.4570778,8.5310861 6.4319953,9.0791943 6.9211569,8.9666644 7.3491998,8.8682023 7.2018005,8.4870568 7.4797982,8.4917585 Z m 3.5672178,0.5245152 c 0.04551,5.292e-4 0.100807,0.012436 0.170022,0.039275 0.55327,0.2147385 -0.175234,0.5458936 0.253735,0.9560133 0.428969,0.410118 0.727472,-0.3327423 0.966867,0.210323 0.239369,0.543065 -0.510434,0.262432 -0.497126,0.855763 0.01323,0.593331 0.749591,0.27872 0.534829,0.83199 -0.214709,0.553268 -0.545888,-0.175247 -0.955992,0.25373 -0.410131,0.428977 0.33221,0.726972 -0.210847,0.966348 -0.543057,0.23938 -0.261382,-0.509939 -0.854736,-0.496609 -0.5933284,0.01333 -0.279215,0.749072 -0.8325117,0.534334 -0.5532438,-0.214739 0.17526,-0.545894 -0.2537354,-0.956014 -0.428969,-0.41012 -0.7269692,0.33274 -0.9663377,-0.210323 C 8.1618146,11.458039 8.9110882,11.739191 8.8978061,11.14586 8.8843123,10.552529 8.148215,10.866621 8.3629509,10.313351 8.5776867,9.760081 8.9093419,10.489114 9.3194725,10.060137 9.7295767,9.6311601 8.9867061,9.3326493 9.5297898,9.0932728 10.072847,8.8538963 9.7917009,9.6032122 10.385029,9.5898825 10.904221,9.5782143 10.728458,9.0134745 11.047016,9.0162737 Z M 7.1656055,9.2715543 C 6.7476167,9.2713956 6.408659,9.6101178 6.4085267,10.028099 c -1.587e-4,0.418182 0.3389048,0.757219 0.7570788,0.75706 0.4179623,-1.48e-4 0.7566818,-0.339095 0.7565231,-0.75706 C 7.9219963,9.6103348 7.5833561,9.2717025 7.1656055,9.2715543 Z M 10.41916,9.9965762 c -0.6156852,4.23e-5 -1.1148481,0.4989828 -1.1151921,1.1146608 -2.381e-4,0.616082 0.49911,1.11565 1.1151921,1.115692 0.616268,2.22e-4 1.115907,-0.499425 1.115669,-1.115692 0,-0.615866 -0.499798,-1.1148831 -1.115669,-1.1146608 z"
       style="opacity:1;fill:#eeeeee;fill-opacity:1;stroke:#eeeeee;stroke-width:0;stroke-miterlimit:10;stroke-dasharray:none;stroke-dashoffset:11.23642349;stroke-opacity:1"
       inkscape:connector-curvature="0"
       sodipodi:nodetypes="cccccccccccccscccccsccccccccccccccscscccccccccccccccccccccscccccccccccccc" />
  </g>
</svg>

<svg xmlns="http://www.w3.org/2000/svg" width="65.26" height="63.622" viewBox="0 0 17.267 16.833"><path d="m1.1 11.958 1.71-7.492 6.923-3.334 6.923 3.334 1.71 7.492-4.79 6.008H5.89Z" style="fill:#326ce5;fill-opacity:1;fill-rule:evenodd;stroke:none;stroke-width:.26458332;stroke-linecap:square;stroke-miterlimit:10" transform="translate(-1.1 -1.132)"/><text xml:space="preserve" x="9.703" y="16.812" style="font-style:normal;font-weight:400;font-size:10.58333302px;line-height:6.61458349px;font-family:Sans;letter-spacing:0;word-spacing:0;fill:#eee;fill-opacity:1;stroke:none;stroke-width:.26458332px;stroke-linecap:butt;stroke-linejoin:miter;stroke-opacity:1" transform="translate(-1.1 -1.132)"><tspan x="9.703" y="16.812" style="font-style:normal;font-variant:normal;font-weight:400;font-stretch:normal;font-size:2.82222223px;font-family:Arial;-inkscape-font-specification:&quot;Arial, Normal&quot;;font-variant-ligatures:normal;font-variant-caps:normal;font-variant-numeric:normal;font-feature-settings:normal;text-align:center;writing-mode:lr-tb;text-anchor:middle;fill:#eee;fill-opacity:1;stroke-width:.26458332px">api</tspan></text><path d="M9.715 4.635c-.139-.004-3.996 1.892-4.046 1.99-.121.233-.999 4.28-.947 4.368.03.05.662.852 1.404 1.78l1.35 1.688 2.222.002h2.221l1.413-1.765 1.414-1.765-.495-2.17c-.272-1.192-.515-2.188-.54-2.212-.07-.067-3.921-1.913-3.996-1.916Zm.236 1.983c.187.008.206.292.605.321.522.04.466-.446.865-.108.399.338-.09.363.035.87.124.509.569.306.37.79-.198.484-.372.027-.817.302-.445.275-.115.635-.636.596-.522-.039-.14-.346-.54-.684-.399-.338-.64.088-.764-.42-.124-.509.286-.241.484-.725.199-.485-.281-.582.164-.857a.696.696 0 0 1 .142-.07.256.256 0 0 1 .092-.015Zm.521.572a.758.758 0 0 0-.73.976.757.757 0 1 0 .73-.976ZM7.48 8.492c.04 0 .088.009.148.027.48.147-.008.4.334.767.343.367.629-.101.741.388.113.49-.35.193-.497.673-.147.48.402.494.034.836-.367.342-.341-.206-.83-.093-.49.112-.228.594-.707.447-.48-.147.007-.4-.335-.767s-.628.1-.74-.388c-.113-.49.35-.193.496-.673.147-.48-.402-.494-.034-.836.367-.342.342.206.831.094.428-.099.28-.48.559-.475Zm3.567.524c.046 0 .1.013.17.04.553.214-.175.545.254.956.429.41.727-.333.967.21.239.543-.51.262-.497.856.013.593.75.278.534.832-.214.553-.546-.176-.956.253-.41.43.333.727-.21.967-.544.24-.262-.51-.855-.497-.594.013-.28.75-.833.534-.553-.214.176-.545-.253-.956-.43-.41-.727.333-.967-.21s.51-.262.497-.855c-.014-.593-.75-.28-.535-.833.215-.553.546.176.956-.253.41-.429-.332-.727.21-.967.544-.24.263.51.856.497.52-.012.343-.577.662-.574Zm-3.881.256a.757.757 0 1 0-.001 1.513.757.757 0 0 0 0-1.513Zm3.253.725a1.115 1.115 0 1 0 0 2.23 1.115 1.115 0 0 0 0-2.23z" style="opacity:1;fill:#eee;fill-opacity:1;stroke:#eee;stroke-width:0;stroke-miterlimit:10;stroke-dasharray:none;stroke-dashoffset:11.23642349;stroke-opacity:1"  transform="translate(-1.1 -1.132)"/></svg>
